src/assets/common-sense.svg

<?xml version="1.0" encoding="UTF-8"?>
<svg width="40px" height="40px" viewBox="0 0 40 40" version="1.1" xmlns="http://www.w3.org/2000/svg" xmlns:xlink="http://www.w3.org/1999/xlink">
    <!-- Generator: Sketch 53 (72520) - https://sketchapp.com -->
    <title>Group 12</title>
    <desc>Created with Sketch.</desc>
    <g id="Page-1" stroke="none" stroke-width="1" fill="none" fill-rule="evenodd">
        <g id="首页" transform="translate(-168.000000, -666.000000)">
            <g id="Group-12" transform="translate(168.000000, 666.000000)">
                <rect id="Rectangle-2" fill="#20C6E2" x="0" y="0" width="40" height="40" rx="12"></rect>
                <path d="M10,12.2331698 L10,27.8963531 C11.516535,26.9121245 13.03307,26.5945625 14.549605,26.9436671 C16.06614,27.2927718 17.582675,27.9752098 19.0992099,28.9909811 L19.1154876,13.5039279 C17.6013366,11.741217 16.0820886,10.9091887 14.5577438,11.0078432 C13.033399,11.1064977 11.514151,11.5149399 10,12.2331698 Z M20.8844721,13.5062672 L20.8844721,29 C22.4037249,27.9831107 23.9229777,27.2995547 25.4422305,26.9493321 C26.9614833,26.5991095 28.4807361,26.9155535 29.9999889,27.8986642 L29.9999889,12.2353682 C28.4756442,11.5165024 26.9563914,11.1080836 25.4422305,11.010112 C23.9280696,10.9121404 22.4088168,11.7441921 20.8844721,13.5062672 Z" id="Fill-1" fill="#FFFFFF"></path>
            </g>
        </g>
    </g>
</svg>

<svg width="40" height="40" xmlns="http://www.w3.org/2000/svg"><g fill="none" fill-rule="evenodd"><rect fill="#20C6E2" width="40" height="40" rx="12"/><path d="M10 12.233v15.663c1.517-.984 3.033-1.301 4.55-.952 1.516.349 3.033 1.031 4.55 2.047l.015-15.487c-1.514-1.763-3.033-2.595-4.557-2.496-1.525.098-3.044.507-4.558 1.225zm10.884 1.273V29c1.52-1.017 3.039-1.7 4.558-2.05 1.52-.35 3.039-.034 4.558.949V12.235c-1.524-.718-3.044-1.127-4.558-1.225-1.514-.098-3.033.734-4.558 2.496z" fill="#FFF"/></g></svg>
